X:1
T:Requies, LM
T:Requies, LM
T:F. Hastie
T:Public Domain Courtesy of the Cyber Hymnal™
C:F. Hastie
Z:Public Domain
Z:Courtesy of the Cyber Hymnal™
%%score ( 1 2 ) ( 3 4 )
L:1/8
M:3/4
K:E
V:1 treble 
V:2 treble 
V:3 bass 
V:4 bass 
V:1
 E2 [EF]2 [EG]2 | [EA]4 [EG]2 | ([DF]2 E2) [DF]2 | [EG]6 | E2 [EF]2 [EG]2 | (B2 A2) [EG]2 | %6
 (F2 G2) [EF]2 | [DF]6 | [DA]2 [DG]2 [DF]2 | [EG]4 [EG]2 | ([=DB]2 [CA]2) [^EG]2 | [Fc]6 | %12
 [Fd]2 [Fc]2 [FB]2 | (e2 E2) [EF]2 | [EG]4 [DF]2 | E6 |] %16
V:2
 E2 x4 | x6 | x2 E2 x2 | x6 | E2 x4 | E4 x2 | E4 x2 | x6 | x6 | x6 | x6 | x6 | x6 | E4 x2 | x6 | %15
 E6 |] %16
V:3
 [E,G,]2 [E,A,]2 [E,B,]2 | (C2 =C2) [E,B,]2 | (A,2 G,2) [B,,B,]2 | [E,B,]6 | %4
 [E,G,]2 [E,A,]2 [E,B,]2 | [E,C]4 [E,B,]2 | [C,^A,]4 [F,A,]2 | [B,,B,]6 | %8
 [B,,F,]2 [B,,B,]2 [B,,A,]2 | (G,2 B,2) [E,C]2 | ([^E,G,]2 [F,A,]2) [G,B,]2 | A,6 | %12
 [A,B,]2 [A,C]2 [A,D]2 | ([G,B,]2 [C,G,]2) [=C,^A,]2 | [B,,B,]4 [B,,A,]2 | [E,G,]6 |] %16
V:4
 x6 | E,4 x2 | B,,4 x2 | x6 | x6 | x6 | x6 | x6 | x6 | E,4 x2 | x6 | A,6 | x6 | x6 | x6 | x6 |] %16

